brandFactory_export/3.Masa/Filtros_3Masa.svg

<?xml version="1.0" encoding="UTF-8"?>
<svg width="24px" height="24px" viewBox="0 0 24 24" version="1.1" xmlns="http://www.w3.org/2000/svg" xmlns:xlink="http://www.w3.org/1999/xlink">
    <title>3.Masa/Filtros_3Masa</title>
    <g id="Symbols" stroke="none" stroke-width="1" fill="none" fill-rule="evenodd">
        <g id="3.Masa/Filtros_3Masa" fill="#5CB615" fill-rule="nonzero">
            <path d="M0.752941176,5.2487395 C0.359663866,5.25210084 0.0336134454,4.93613445 0.0302521008,4.5394958 C0.0302521008,4.14957983 0.352941176,3.83361345 0.752941176,3.83361345 L2.01344538,3.83361345 C2.09747899,3.42016807 2.25210084,3.02352941 2.48739496,2.65378151 C3.00168067,1.85714286 3.81512605,1.29579832 4.74285714,1.09411765 C5.67394958,0.882352941 6.65210084,1.04705882 7.46218487,1.5512605 C8.2789916,2.05210084 8.84369748,2.83865546 9.05546218,3.75966387 C9.06218487,3.78319328 9.05882353,3.81008403 9.06218487,3.83361345 L22.8672269,3.83361345 C23.2638655,3.83361345 23.589916,4.15294118 23.589916,4.54285714 C23.589916,4.93277311 23.2672269,5.25210084 22.8672269,5.25210084 L9.06554622,5.25210084 C8.98151261,5.67226891 8.82016807,6.06890756 8.58823529,6.42857143 C8.07394958,7.22857143 7.27394958,7.78319328 6.33277311,7.98823529 C5.40168067,8.2 4.42352941,8.03529412 3.61344538,7.53109244 C2.80672269,7.03697479 2.23529412,6.24369748 2.02016807,5.32268908 C2.01344538,5.29915966 2.01344538,5.27563025 2.01008403,5.2487395 L0.752941176,5.2487395 Z M22.8403361,11.4067227 C23.2403361,11.4067227 23.5630252,11.7226891 23.5630252,12.1159664 C23.5630252,12.5058824 23.2403361,12.8218487 22.8403361,12.8218487 L21.5428571,12.8218487 C21.210084,14.4319328 19.7512605,15.6487395 18.010084,15.6487395 C16.2689076,15.6487395 14.8134454,14.4319328 14.4773109,12.8218487 L0.722689076,12.8218487 C0.329411765,12.8252101 0.00336134454,12.5092437 0,12.112605 C0,11.7226891 0.322689076,11.4033613 0.722689076,11.4033613 L14.4739496,11.4033613 C14.810084,9.79327731 16.2655462,8.57647059 18.0067227,8.57647059 C19.7478992,8.57647059 21.2067227,9.79327731 21.5394958,11.4033613 L22.8403361,11.4033613 L22.8403361,11.4067227 L22.8403361,11.4067227 Z M22.8369748,18.9630252 C23.2369748,18.9630252 23.5596639,19.2789916 23.5596639,19.6722689 C23.5596639,20.0621849 23.2369748,20.3815126 22.8369748,20.3815126 L12.2991597,20.3815126 C11.9630252,21.9915966 10.507563,23.2084034 8.76638655,23.2084034 C7.02521008,23.2084034 5.5697479,21.9915966 5.23361345,20.3815126 L0.722689076,20.3815126 C0.329411765,20.3848739 0.00336134454,20.0689076 0,19.6722689 C0,19.2823529 0.322689076,18.9663866 0.722689076,18.9663866 L5.23361345,18.9663866 C5.5697479,17.3563025 7.02521008,16.1394958 8.76638655,16.1394958 C10.507563,16.1394958 11.9630252,17.3563025 12.2991597,18.9663866 L22.8369748,18.9630252 Z" id="Filtros_3Masa"></path>
        </g>
    </g>
</svg>

<svg width="24" height="24" viewBox="0 0 24 24" xmlns="http://www.w3.org/2000/svg"><path d="M.753 5.249a.717.717 0 01-.723-.71c0-.39.323-.705.723-.705h1.26a3.47 3.47 0 01.474-1.18 3.596 3.596 0 012.256-1.56 3.627 3.627 0 012.72.457A3.494 3.494 0 019.054 3.76c.007.023.004.05.007.074h13.805c.397 0 .723.319.723.709 0 .39-.323.71-.723.71H9.066c-.084.42-.246.816-.478 1.176a3.56 3.56 0 01-2.255 1.56 3.627 3.627 0 01-2.72-.458A3.525 3.525 0 012.02 5.323c-.007-.024-.007-.047-.01-.074H.753zm22.087 6.158c.4 0 .723.316.723.709 0 .39-.323.706-.723.706h-1.297c-.333 1.61-1.792 2.827-3.533 2.827-1.741 0-3.197-1.217-3.533-2.827H.723a.717.717 0 01-.723-.71c0-.39.323-.709.723-.709h13.75c.337-1.61 1.793-2.827 3.534-2.827 1.74 0 3.2 1.217 3.532 2.827h1.301v.004zm-.003 7.556c.4 0 .723.316.723.71 0 .39-.323.709-.723.709H12.299c-.336 1.61-1.791 2.826-3.533 2.826-1.74 0-3.196-1.216-3.532-2.826H.723a.717.717 0 01-.723-.71c0-.39.323-.706.723-.706h4.51c.337-1.61 1.792-2.827 3.533-2.827 1.742 0 3.197 1.217 3.533 2.827l10.538-.003z" fill="#5CB615" fill-rule="nonzero"/></svg>
